X: 1067
T: Hisar Sazsemâîsi
C: Kemânî Ali Ağa
O: Turkey
F: http://compmusic.upf.edu/node/140
N: hisar--sazsemaisi--aksaksemai----kemani_ali_aga
N: makam= hisar
N: form= sazsemaisi
N: usul= aksaksemai = 10/8
M: 10/8
L: 1/16
K: C _1/4B   
Q: 1/4=120
%%MIDI tuningsystem comma53
e4 ^d2e^1/4f ede2 f2^ga gfe2  | f2e2 ^d2ed cBc2 d2e4z2  | 
w:  1. HANE  |   | 
ef^g2 ^1/4f2e3ba2 g2f4e^d  | e4 ^d2ba2^gg^1/4f fee4z2  | 
w:   |   | 
efe2 d2cd cBc2 d2e4z2  | efde cdc2 B2AB AGA2 B2c2  | 
w:  TESLİM  |   | 
c4 B2BA G2ed dcc4z2  | B4 c2_2/4BA BcBA GBA4z2  | 
w:   |   | 
d4 e2^fg fef2 g2ab a2g2  | ^f4 fff3gfe dfe4z2  | 
w:  2. HANE  |   | 
e2^1/4f2 ^g2g2 f2f2 e2b2 a2b2  | _a4 f2b2 =a_aaf fee4z2  | 
w:   |   | 
efe2 d2cd cBc2 d2e4z2  | efde cdc2 B2AB AGA2 B2c2  | 
w:  TESLİM  |   | 
c4 B2BA G2ed dcc4z2  | B4 c2_2/4BA BcBA GBA4z2  | 
w:   |   | 
g4 ^f2ef ede2 f2g2 _a2bc'  | b_a2g g2d'2 c'bba agg4z2  | 
w:  3. HANE  |   | 
_a2g2 ^f2gf e2^1/4fe ^d2e2 f2a=a  | \
w:   | 
_a2^1/4f2 e2e2 b2=ag g=ffe e2z2  | 
w:   | 
efe2 d2cd cBc2 d2e4z2  | efde cdc2 B2AB AGA2 B2c2  | 
w:  TESLİM  |   | 
c4 B2BA G2ed dcc4z2  | B4 c2_2/4BA BcBA GBA4z2  | 
w:   |   | 
|


